X:1
T:I Love Him
T:I Love Him
T:Stephen C. Foster; arr. by Daniel B. Towner, 1909
T:London Hymn Book
T:PUBLIC DOMAIN
T:PUBLIC DOMAIN
C:Stephen C. Foster; arr. by Daniel B. Towner, 1909
Z:London Hymn Book
Z:PUBLIC DOMAIN
%%score ( 1 2 ) ( 3 4 5 )
L:1/8
Q:1/4=110
M:4/4
K:D
V:1 treble nm="Treble"
V:2 treble 
V:3 bass nm="Bass"
V:4 bass 
V:5 bass 
V:1
 D2 [DF]3/2 [EG]/ [FA]3 [FA] | [GB] [Bd] [Ac] [GB] [FA]4 | D2 [DF]3/2 [EG]/ [FA]3 [FA] | %3
w: 1.~Gone from my heart the|world and all its charms;|Now through the blood I’m|
w: 2.~Once I was lost, and|’way down deep in sin;|Once was a slave to|
w: 3.~Once I was bound, but|now I am set free;|Once I was blind, but|
 [GB] [FA] [EG] [DF] [CE]4 | D2 [DF]3/2 [EG]/ [FA]3 [FA] | [GB] [Bd] [Ac] [GB] [FA]3 [Fd] | %6
w: saved from all a- larms;|Down at the cross my|heart is bend- ing low; The|
w: pas- sions fierce with- in;|Once was a- fraid to|meet an an- gry God; But|
w: now the light I see;|Once I was dead, but|now in Christ I live, To|
 [Ec]3/2 [Fd]/ [Ge] [Gc] [Fd] [GB] [DA] [DB] | [DF]2 [CE]2 D4 ||"^Refrain" [FA]4 [DF] [FA]2 z | %9
w: pre- cious blood of Je- sus cleans- es|white as snow.|I love Him,|
w: now I’m cleansed from ev- ’ry stain through|Je- sus’ blood.||
w: tell the world a- round the peace that|He doth give.||
 [FA]4 [DF] [FA]2 [FA] | [GB]2 [Bd]2 [Ac]2 [GB]2 | [FA]6 | [Fd]2 | [Ec]3 [Fd] [Ge]2 [Gc]2 | %14
w: I love Him, Be-|cause He first loved|me,|And|pur- chased my sal-|
w: |||||
w: |||||
 (([Fd]2 [GB]2)) [DA]2 [DB]2 | [DF]4 [CE]4 | D6 z2 |] %17
w: va- _ tion on|Cal- v’ry’s|tree.|
w: |||
w: |||
V:2
 D2 z2 z4 | x8 | D2 z2 z4 | x8 | D2 z2 z4 | x8 | x8 | z4 D4 || x8 | x8 | x8 | x6 | x2 | x8 | x8 | %15
 x8 | D6 z2 |] %17
V:3
 [D,F,]2 [D,A,]3/2 [D,A,]/ [D,D]3 [D,D] | [G,D] [G,D] [G,D] [G,D] [D,D]4 | %2
 [D,F,]2 [D,A,]3/2 [D,A,]/ [D,D]3 [D,D] | [D,D] [D,D] [D,A,] [D,A,] [A,,A,]4 | %4
 [D,F,]2 [D,A,]3/2 [D,A,]/ [D,D]3 [D,D] | [G,D] [G,D] [G,D] [G,D] [D,D]3 [D,A,] | %6
 A,3/2 A,/ [A,C] [A,E] [B,,D] [B,,D] [F,D] [F,D] | A,2 [A,,G,]2 [D,F,]4 || [D,D]4 [D,A,] [D,D]2 z | %9
 [D,D]4 [D,A,] [D,D]2 [D,D] | [G,D]2 [G,D]2 [G,D]2 [G,D]2 | [D,D]6 | [D,A,]2 | %13
 A,3 A, [A,C]2 [A,E]2 | (([D,D]2 [E,C]2)) [F,D]2 [G,D]2 | A,4 (A,2 G,2) | [D,F,]6 z2 |] %17
V:4
 x8 | x8 | x8 | z4 z G, F, E, | x8 | x8 | x8 | x8 || x8 | x8 | x8 | x6 | x2 | z4 G,, A,, B,, C, | %14
 x8 | x8 | x8 |] %17
V:5
 x8 | x8 | x8 | x8 | x8 | x8 | A,3/2 A,/ z2 z4 | A,2 z2 z4 || x8 | x8 | x8 | x6 | x2 | A,3 A, z4 | %14
 x8 | A,4 A,,4 | x8 |] %17

